; generated by PrusaSlicer 2.9.1 on 2025-06-17 at 21:19:39 UTC


;
;

;
;

;
;
; 

; external perimeters extrusion width = 0.45mm
; perimeters extrusion width = 0.45mm
; infill extrusion width = 0.45mm
; solid infill extrusion width = 0.45mm
; top infill extrusion width = 0.40mm
; first layer extrusion width = 1.20mm

M73 P0 R13
M104 S230 ; set temperature
;TYPE:Custom
M109 S230 ; set temperature and wait for it to be reached
G21 ; set units to millimeters
G90 ; use absolute coordinates
M82 ; use absolute distances for extrusion
G92 E0
; Filament gcode
M107
;LAYER_CHANGE
;Z:0.3
;HEIGHT:0.3
G1 E-3.2 F4200
G92 E0
G1 Z.5 F9000
G1 X-17.203 Y0
G1 Z.3
G1 E3.2 F2400
;TYPE:Skirt/Brim
;WIDTH:1.2
G1 F1200
G1 X-17.203 Y-9.5 E4.54559
G1 X-16.806 Y-11.942 E4.89602
G1 X-15.655 Y-14.133 E5.24657
G1 X-13.869 Y-15.845 E5.59699
G1 X-11.632 Y-16.903 E5.94749
G1 X-9.5 Y-17.203 E6.25244
G1 X10.5 Y-17.203 E9.08525
G1 X12.942 Y-16.806 E9.43568
G1 X15.133 Y-15.655 E9.78623
G1 X16.845 Y-13.869 E10.13665
G1 X17.903 Y-11.632 E10.48715
G1 X18.203 Y-9.5 E10.7921
G1 X18.203 Y10.5 E13.62491
G1 X17.806 Y12.942 E13.97534
G1 X16.655 Y15.133 E14.32589
G1 X14.869 Y16.845 E14.67631
G1 X12.632 Y17.903 E15.02681
G1 X10.5 Y18.203 E15.33176
G1 X-9.5 Y18.203 E18.16457
G1 X-11.942 Y17.806 E18.515
G1 X-14.133 Y16.655 E18.86555
G1 X-15.845 Y14.869 E19.21597
G1 X-16.903 Y12.632 E19.56647
G1 X-17.203 Y10.5 E19.87142
G1 X-17.203 Y.06 E21.35015
G1 X-16.068 Y.06 F9000
G1 F1200
G1 X-16.068 Y-9.5 E22.70424
G1 X-15.671 Y-11.749 E23.02771
G1 X-14.528 Y-13.726 E23.35117
G1 X-12.777 Y-15.192 E23.67463
G1 X-9.5 Y-16.068 E24.15508
G1 X10.5 Y-16.068 E26.98789
G1 X12.749 Y-15.671 E27.31136
M73 P1 R13
G1 X14.726 Y-14.528 E27.63482
G1 X16.192 Y-12.777 E27.95828
G1 X17.068 Y-9.5 E28.43873
G1 X17.068 Y10.5 E31.27154
G1 X16.671 Y12.749 E31.59501
G1 X15.528 Y14.726 E31.91847
G1 X13.777 Y16.192 E32.24193
G1 X10.5 Y17.068 E32.72238
G1 X-9.5 Y17.068 E35.55519
G1 X-11.749 Y16.671 E35.87866
G1 X-13.726 Y15.528 E36.20212
G1 X-15.192 Y13.777 E36.52558
G1 X-16.068 Y10.5 E37.00603
G1 X-16.068 Y.12 E38.47626
G1 E36.23626 F4200
;WIPE_START
G1 F7200
G1 X-16.068 Y.06 E36.20301
G1 X-16.068 Y-1.612 E35.27626
;WIPE_END
G92 E0
G1 Z.5 F9000
G92 E0
G1 X-7.764 Y5.101
G1 Z.3
G1 E3.2 F2400
;TYPE:Perimeter
;WIDTH:1.2
G1 F1200
G1 X-7.764 Y-7.764 E5.02221
G1 X8.764 Y-7.764 E7.36325
G1 X8.764 Y.5 E8.53377
G1 X8.764 Y8.764 E9.70429
G1 X-7.764 Y8.764 E12.04533
G1 X-7.764 Y5.161 E12.55566
G1 X-8.9 Y5.101 F9000
M73 P2 R13
;TYPE:External perimeter
G1 F1200
G1 X-8.9 Y-8.9 E14.53877
G1 X9.9 Y-8.9 E17.20161
G1 X9.9 Y.5 E18.53303
G1 X9.9 Y9.9 E19.86445
G1 X-8.9 Y9.9 E22.52729
G1 X-8.9 Y5.161 E23.19853
G1 E20.95853 F4200
;WIPE_START
G1 F7200
G1 X-8.9 Y5.101 E20.92528
G1 X-8.9 Y3.429 E19.99853
;WIPE_END
G92 E0
G1 Z.5 F9000
G1 X-7.424 Y6.017
G1 Z.3
G1 E3.2 F2400
;TYPE:Solid infill
;WIDTH:1.25239
G1 F1200
G1 X-5.528 Y7.913 E3.59731
G1 X-3.848 Y7.913 E3.84624
G1 X-6.913 Y4.848 E4.48851
G1 X-6.913 Y3.168 E4.73744
G1 X-2.168 Y7.913 E5.73176
G1 X-.488 Y7.913 E5.98069
G1 X-6.913 Y1.488 E7.32706
G1 X-6.913 Y-.192 E7.57599
G1 X1.192 Y7.913 E9.2744
G1 X2.872 Y7.913 E9.52333
G1 X-6.913 Y-1.872 E11.57379
G1 X-6.913 Y-3.552 E11.82272
G1 X4.552 Y7.913 E14.22523
G1 X6.233 Y7.913 E14.47431
G1 X-6.913 Y-5.232 E17.22897
G1 X-6.913 Y-6.913 E17.47805
M73 P3 R13
G1 X7.913 Y7.913 E20.58486
G1 X7.913 Y6.233 E20.83379
G1 X-5.233 Y-6.913 E23.58855
G1 X-3.553 Y-6.913 E23.83748
G1 X7.913 Y4.553 E26.2402
G1 X7.913 Y2.872 E26.48928
G1 X-1.872 Y-6.913 E28.53974
G1 X-.192 Y-6.913 E28.78867
G1 X7.913 Y1.192 E30.48708
G1 X7.913 Y-.488 E30.73601
G1 X1.488 Y-6.913 E32.08238
G1 X3.168 Y-6.913 E32.33131
G1 X7.913 Y-2.168 E33.32563
G1 X7.913 Y-3.848 E33.57456
G1 X4.848 Y-6.913 E34.21683
G1 X6.528 Y-6.913 E34.46576
G1 X8.424 Y-5.017 E34.86307
M106 S252.45
;LAYER_CHANGE
;Z:0.6
;HEIGHT:0.3
;BEFORE_LAYER_CHANGE
;G92 E0.0
;0.6


G1 E32.62307 F4200
;WIPE_START
G1 F7200
G1 X7.199 Y-6.242 E31.66307
;WIPE_END
G92 E0
G1 Z.6 F9000
;AFTER_LAYER_CHANGE
;0.6
M104 S225 ; set temperature
G1 Z.8
G1 X-7.605 Y9.889
G1 Z.6
G1 E3.2 F2400
;TYPE:Perimeter
;WIDTH:0.45
G1 X-8.889 Y9.889 E3.26176
G1 X-8.889 Y-8.889 E4.16492
G1 X9.889 Y-8.889 E5.06808
G1 X9.889 Y.5 E5.51966
G1 X9.889 Y9.889 E5.97124
M73 P4 R13
G1 X-7.545 Y9.889 E6.80975
G1 X-7.605 Y10.275 F9000
;TYPE:External perimeter
G1 F1200
G1 X-9.275 Y10.275 E6.89007
G1 X-9.275 Y-9.275 E7.83036
G1 X10.275 Y-9.275 E8.77065
G1 X10.275 Y.5 E9.24079
G1 X10.275 Y10.275 E9.71093
G1 X-7.545 Y10.275 E10.56801
G1 E8.32801 F4200
;WIPE_START
G1 F7200
G1 X-7.605 Y10.275 E8.29476
G1 X-9.275 Y10.275 E7.3693
G1 X-9.275 Y10.273 E7.36801
;WIPE_END
G92 E0
G1 Z.8 F9000
G1 X-8.496 Y-8.569
G1 Z.6
G1 E3.2 F2400
;TYPE:Solid infill
;WIDTH:0.543559
G1 F4800
G1 X-8.538 Y-8.611 E3.20355
G1 X-8.596 Y-8.596 E3.20713
G1 X-8.611 Y-8.538 E3.21071
G1 X-8.569 Y-8.496 E3.21426
G1 X-8.511 Y-8.511 E3.21784
;WIDTH:0.45
G1 X-8.6 Y-7.895 E3.24778
G1 X-7.895 Y-8.6 E3.29573
G1 X-7.35 Y-8.6 E3.32194
G1 X-8.6 Y-7.35 E3.40696
G1 X-8.6 Y-6.804 E3.43322
G1 X-6.804 Y-8.6 E3.55538
G1 X-6.259 Y-8.6 E3.58159
G1 X-8.6 Y-6.259 E3.74082
G1 X-8.6 Y-5.714 E3.76703
G1 X-5.714 Y-8.6 E3.96333
G1 X-5.168 Y-8.6 E3.98959
G1 X-8.6 Y-5.168 E4.22303
G1 X-8.6 Y-4.623 E4.24924
G1 X-4.623 Y-8.6 E4.51975
G1 X-4.078 Y-8.6 E4.54596
G1 X-8.6 Y-4.078 E4.85354
G1 X-8.6 Y-3.532 E4.8798
G1 X-3.532 Y-8.6 E5.22452
G1 X-2.987 Y-8.6 E5.25073
G1 X-8.6 Y-2.987 E5.63252
G1 X-8.6 Y-2.442 E5.65873
G1 X-2.442 Y-8.6 E6.07759
G1 X-1.896 Y-8.6 E6.10385
G1 X-8.6 Y-1.896 E6.55985
G1 X-8.6 Y-1.351 E6.58606
G1 X-1.351 Y-8.6 E7.07913
G1 X-.806 Y-8.6 E7.10534
G1 X-8.6 Y-.806 E7.63548
G1 X-8.6 Y-.26 E7.66174
G1 X-.26 Y-8.6 E8.22902
G1 X.285 Y-8.6 E8.25523
G1 X-8.6 Y.285 E8.85958
G1 X-8.6 Y.83 E8.88579
G1 X.83 Y-8.6 E9.52721
G1 X1.376 Y-8.6 E9.55347
G1 X-8.6 Y1.376 E10.23203
G1 X-8.6 Y1.921 E10.25824
M73 P5 R13
G1 X1.921 Y-8.6 E10.97387
G1 X2.467 Y-8.6 E11.00013
G1 X-8.6 Y2.467 E11.75289
G1 X-8.6 Y3.012 E11.7791
G1 X3.012 Y-8.6 E12.56893
G1 X3.557 Y-8.6 E12.59514
G1 X-8.6 Y3.557 E13.42204
G1 X-8.6 Y4.103 E13.4483
G1 X4.103 Y-8.6 E14.31234
G1 X4.648 Y-8.6 E14.33855
G1 X-8.6 Y4.648 E15.23966
G1 X-8.6 Y5.193 E15.26587
G1 X5.193 Y-8.6 E16.20405
G1 X5.739 Y-8.6 E16.23031
G1 X-8.6 Y5.739 E17.20563
G1 X-8.6 Y6.284 E17.23184
G1 X6.284 Y-8.6 E18.24423
G1 X6.829 Y-8.6 E18.27044
G1 X-8.6 Y6.829 E19.3199
G1 X-8.6 Y7.375 E19.34616
G1 X7.375 Y-8.6 E20.43276
G1 X7.92 Y-8.6 E20.45897
G1 X-8.6 Y7.92 E21.58264
G1 X-8.6 Y8.465 E21.60885
G1 X8.465 Y-8.6 E22.76959
G1 X9.011 Y-8.6 E22.79585
G1 X-8.6 Y9.011 E23.99373
G1 X-8.6 Y9.556 E24.01994
G1 X9.556 Y-8.6 E25.25489
G1 X9.6 Y-8.099 E25.27908
G1 X-8.099 Y9.6 E26.48294
G1 X-7.554 Y9.6 E26.50915
G1 X9.6 Y-7.554 E27.67594
G1 X9.6 Y-7.008 E27.7022
G1 X-7.008 Y9.6 E28.83186
G1 X-6.463 Y9.6 E28.85807
G1 X9.6 Y-6.463 E29.95066
G1 X9.6 Y-5.918 E29.97687
G1 X-5.918 Y9.6 E31.03239
G1 X-5.372 Y9.6 E31.05865
G1 X9.6 Y-5.372 E32.07703
G1 X9.6 Y-4.827 E32.10324
G1 X-4.827 Y9.6 E33.08455
G1 X-4.282 Y9.6 E33.11076
G1 X9.6 Y-4.282 E34.055
G1 X9.6 Y-3.736 E34.08126
G1 X-3.736 Y9.6 E34.98836
G1 X-3.191 Y9.6 E35.01457
G1 X9.6 Y-3.191 E35.8846
G1 X9.6 Y-2.645 E35.91086
M73 P6 R13
G1 X-2.645 Y9.6 E36.74375
G1 X-2.1 Y9.6 E36.76996
G1 X9.6 Y-2.1 E37.56578
G1 X9.6 Y-1.555 E37.59199
G1 X-1.555 Y9.6 E38.35074
G1 X-1.009 Y9.6 E38.377
G1 X9.6 Y-1.009 E39.09861
G1 X9.6 Y-.464 E39.12482
G1 X-.464 Y9.6 E39.80936
G1 X.081 Y9.6 E39.83557
G1 X9.6 Y.081 E40.48304
G1 X9.6 Y.627 E40.5093
G1 X.627 Y9.6 E41.11963
G1 X1.172 Y9.6 E41.14584
G1 X9.6 Y1.172 E41.7191
G1 X9.6 Y1.717 E41.74531
G1 X1.717 Y9.6 E42.2815
G1 X2.263 Y9.6 E42.30776
G1 X9.6 Y2.263 E42.80681
G1 X9.6 Y2.808 E42.83302
G1 X2.808 Y9.6 E43.295
G1 X3.353 Y9.6 E43.32121
G1 X9.6 Y3.353 E43.74612
G1 X9.6 Y3.899 E43.77238
G1 X3.899 Y9.6 E44.16015
G1 X4.444 Y9.6 E44.18636
G1 X9.6 Y4.444 E44.53706
G1 X9.6 Y4.989 E44.56327
G1 X4.989 Y9.6 E44.8769
G1 X5.535 Y9.6 E44.90316
G1 X9.6 Y5.535 E45.17966
G1 X9.6 Y6.08 E45.20587
G1 X6.08 Y9.6 E45.4453
G1 X6.625 Y9.6 E45.47151
G1 X9.6 Y6.625 E45.67387
G1 X9.6 Y7.171 E45.70013
G1 X7.171 Y9.6 E45.86535
G1 X7.716 Y9.6 E45.89156
G1 X9.6 Y7.716 E46.01971
G1 X9.6 Y9.6 E46.11032
G1 X8.261 Y9.6 E46.17472
G1 X9.464 Y8.398 E46.25651
G1 X9.256 Y9.195 F9000
;WIDTH:0.462939
G1 F4800
G1 X9.173 Y9.173 E46.26078
G1 X9.195 Y9.256 E46.26505
G1 X9.243 Y9.243 E46.26752
;LAYER_CHANGE
;Z:0.9
;HEIGHT:0.3
;BEFORE_LAYER_CHANGE
;G92 E0.0
;0.9


G1 E44.02752 F4200
;WIPE_START
G1 F7200
G1 X9.195 Y9.256 E43.99996
G1 X9.173 Y9.173 E43.95238
G1 X9.256 Y9.195 E43.9048
;WIPE_END
G1 E43.06752 F4200
G92 E0
G1 Z.9 F9000
;AFTER_LAYER_CHANGE
;0.9
G1 Z1.1
G1 X2.642 Y9.889
G1 Z.9
G1 E3.2 F2400
;TYPE:Perimeter
;WIDTH:0.45
G1 X-8.889 Y9.889 E3.7546
G1 X-8.889 Y-8.889 E4.65776
G1 X9.889 Y-8.889 E5.56092
G1 X9.889 Y.5 E6.0125
G1 X9.889 Y9.889 E6.46408
G1 X2.702 Y9.889 E6.80975
G1 X2.642 Y10.275 F9000
;TYPE:External perimeter
G1 F1200
G1 X-9.275 Y10.275 E7.38292
G1 X-9.275 Y-9.275 E8.32321
M73 P6 R12
G1 X10.275 Y-9.275 E9.2635
M73 P7 R12
G1 X10.275 Y.5 E9.73364
G1 X10.275 Y10.275 E10.20378
G1 X2.702 Y10.275 E10.56801
G1 E8.32801 F4200
;WIPE_START
G1 F7200
G1 X2.642 Y10.275 E8.29476
G1 X.97 Y10.275 E7.36801
;WIPE_END
G92 E0
G1 Z1.1 F9000
G1 X-8.569 Y9.496
G1 Z.9
G1 E3.2 F2400
;TYPE:Solid infill
;WIDTH:0.543559
G1 F4800
G1 X-8.611 Y9.538 E3.20355
G1 X-8.596 Y9.596 E3.20713
G1 X-8.538 Y9.611 E3.21071
G1 X-8.496 Y9.569 E3.21426
G1 X-8.511 Y9.511 E3.21784
;WIDTH:0.45
G1 X-8.6 Y8.895 E3.24778
G1 X-7.895 Y9.6 E3.29573
G1 X-7.35 Y9.6 E3.32194
G1 X-8.6 Y8.35 E3.40696
G1 X-8.6 Y7.804 E3.43322
G1 X-6.804 Y9.6 E3.55538
G1 X-6.259 Y9.6 E3.58159
G1 X-8.6 Y7.259 E3.74082
G1 X-8.6 Y6.714 E3.76703
G1 X-5.714 Y9.6 E3.96333
G1 X-5.168 Y9.6 E3.98959
G1 X-8.6 Y6.168 E4.22303
G1 X-8.6 Y5.623 E4.24924
G1 X-4.623 Y9.6 E4.51975
G1 X-4.078 Y9.6 E4.54596
G1 X-8.6 Y5.078 E4.85354
G1 X-8.6 Y4.532 E4.8798
G1 X-3.532 Y9.6 E5.22452
G1 X-2.987 Y9.6 E5.25073
G1 X-8.6 Y3.987 E5.63252
G1 X-8.6 Y3.442 E5.65873
G1 X-2.442 Y9.6 E6.07759
G1 X-1.896 Y9.6 E6.10385
G1 X-8.6 Y2.896 E6.55985
G1 X-8.6 Y2.351 E6.58606
G1 X-1.351 Y9.6 E7.07913
G1 X-.806 Y9.6 E7.10534
G1 X-8.6 Y1.806 E7.63548
G1 X-8.6 Y1.26 E7.66174
G1 X-.26 Y9.6 E8.22902
G1 X.285 Y9.6 E8.25523
G1 X-8.6 Y.715 E8.85958
G1 X-8.6 Y.17 E8.88579
G1 X.83 Y9.6 E9.52721
G1 X1.376 Y9.6 E9.55347
G1 X-8.6 Y-.376 E10.23203
G1 X-8.6 Y-.921 E10.25824
G1 X1.921 Y9.6 E10.97387
G1 X2.467 Y9.6 E11.00013
G1 X-8.6 Y-1.467 E11.75289
G1 X-8.6 Y-2.012 E11.7791
G1 X3.012 Y9.6 E12.56893
G1 X3.557 Y9.6 E12.59514
G1 X-8.6 Y-2.557 E13.42204
G1 X-8.6 Y-3.103 E13.4483
G1 X4.103 Y9.6 E14.31234
G1 X4.648 Y9.6 E14.33855
G1 X-8.6 Y-3.648 E15.23966
G1 X-8.6 Y-4.193 E15.26587
G1 X5.193 Y9.6 E16.20405
G1 X5.739 Y9.6 E16.23031
G1 X-8.6 Y-4.739 E17.20563
G1 X-8.6 Y-5.284 E17.23184
M73 P8 R12
G1 X6.284 Y9.6 E18.24423
G1 X6.829 Y9.6 E18.27044
G1 X-8.6 Y-5.829 E19.3199
G1 X-8.6 Y-6.375 E19.34616
G1 X7.375 Y9.6 E20.43276
G1 X7.92 Y9.6 E20.45897
G1 X-8.6 Y-6.92 E21.58264
G1 X-8.6 Y-7.465 E21.60885
G1 X8.465 Y9.6 E22.76959
G1 X9.011 Y9.6 E22.79585
G1 X-8.6 Y-8.011 E23.99373
G1 X-8.6 Y-8.556 E24.01994
G1 X9.556 Y9.6 E25.25489
G1 X9.6 Y9.099 E25.27908
G1 X-8.099 Y-8.6 E26.48294
G1 X-7.554 Y-8.6 E26.50915
G1 X9.6 Y8.554 E27.67594
G1 X9.6 Y8.008 E27.7022
G1 X-7.008 Y-8.6 E28.83186
G1 X-6.463 Y-8.6 E28.85807
G1 X9.6 Y7.463 E29.95066
G1 X9.6 Y6.918 E29.97687
G1 X-5.918 Y-8.6 E31.03239
G1 X-5.372 Y-8.6 E31.05865
G1 X9.6 Y6.372 E32.07703
G1 X9.6 Y5.827 E32.10324
G1 X-4.827 Y-8.6 E33.08455
G1 X-4.282 Y-8.6 E33.11076
G1 X9.6 Y5.282 E34.055
G1 X9.6 Y4.736 E34.08126
G1 X-3.736 Y-8.6 E34.98836
G1 X-3.191 Y-8.6 E35.01457
G1 X9.6 Y4.191 E35.8846
G1 X9.6 Y3.645 E35.91086
G1 X-2.645 Y-8.6 E36.74375
G1 X-2.1 Y-8.6 E36.76996
G1 X9.6 Y3.1 E37.56578
G1 X9.6 Y2.555 E37.59199
G1 X-1.555 Y-8.6 E38.35074
G1 X-1.009 Y-8.6 E38.377
G1 X9.6 Y2.009 E39.09861
G1 X9.6 Y1.464 E39.12482
G1 X-.464 Y-8.6 E39.80936
G1 X.081 Y-8.6 E39.83557
G1 X9.6 Y.919 E40.48304
G1 X9.6 Y.373 E40.5093
G1 X.627 Y-8.6 E41.11963
G1 X1.172 Y-8.6 E41.14584
G1 X9.6 Y-.172 E41.7191
G1 X9.6 Y-.717 E41.74531
G1 X1.717 Y-8.6 E42.2815
M73 P9 R12
G1 X2.263 Y-8.6 E42.30776
G1 X9.6 Y-1.263 E42.80681
G1 X9.6 Y-1.808 E42.83302
G1 X2.808 Y-8.6 E43.295
G1 X3.353 Y-8.6 E43.32121
G1 X9.6 Y-2.353 E43.74612
G1 X9.6 Y-2.899 E43.77238
G1 X3.899 Y-8.6 E44.16015
G1 X4.444 Y-8.6 E44.18636
G1 X9.6 Y-3.444 E44.53706
G1 X9.6 Y-3.989 E44.56327
G1 X4.989 Y-8.6 E44.8769
G1 X5.535 Y-8.6 E44.90316
G1 X9.6 Y-4.535 E45.17966
G1 X9.6 Y-5.08 E45.20587
G1 X6.08 Y-8.6 E45.4453
G1 X6.625 Y-8.6 E45.47151
G1 X9.6 Y-5.625 E45.67387
G1 X9.6 Y-6.171 E45.70013
G1 X7.171 Y-8.6 E45.86535
G1 X7.716 Y-8.6 E45.89156
G1 X9.6 Y-6.716 E46.01971
G1 E43.77971 F4200
;WIPE_START
G1 F7200
G1 X8.375 Y-7.941 E42.81971
;WIPE_END
G92 E0
G1 Z1.1 F9000
G1 X8.398 Y-8.464
G1 Z.9
G1 E3.2 F2400
G1 F4800
G1 X9.6 Y-7.261 E3.28179
G1 X9.6 Y-8.6 E3.34619
G1 X8.261 Y-8.6 E3.41059
G1 X9.195 Y-8.256 F9000
;WIDTH:0.462939
G1 F4800
G1 X9.173 Y-8.173 E3.41486
G1 X9.256 Y-8.195 E3.41913
G1 X9.243 Y-8.243 E3.4216
;LAYER_CHANGE
;Z:1.2
;HEIGHT:0.3
;BEFORE_LAYER_CHANGE
;G92 E0.0
;1.2


G1 E1.1816 F4200
;WIPE_START
G1 F7200
G1 X9.256 Y-8.195 E1.15404
G1 X9.173 Y-8.173 E1.10646
G1 X9.195 Y-8.256 E1.05888
;WIPE_END
G1 E.2216 F4200
G92 E0
G1 Z1.2 F9000
;AFTER_LAYER_CHANGE
;1.2
G1 Z1.4
G1 X-.892 Y-8.889
G1 Z1.2
G1 E3.2 F2400
;TYPE:Perimeter
;WIDTH:0.45
G1 X9.889 Y-8.889 E3.71853
G1 X9.889 Y.5 E4.17011
G1 X9.889 Y9.889 E4.62169
G1 X-8.889 Y9.889 E5.52485
G1 X-8.889 Y-8.889 E6.42801
G1 X-.952 Y-8.889 E6.80975
G1 X-.892 Y-9.275 F9000
;TYPE:External perimeter
G1 F1200
G1 X10.275 Y-9.275 E7.34684
G1 X10.275 Y.5 E7.81698
G1 X10.275 Y10.275 E8.28712
G1 X-9.275 Y10.275 E9.22741
G1 X-9.275 Y-9.275 E10.1677
G1 X-.952 Y-9.275 E10.56801
M73 P10 R12
G1 E8.32801 F4200
;WIPE_START
G1 F7200
G1 X-.892 Y-9.275 E8.29476
G1 X.78 Y-9.275 E7.36801
;WIPE_END
G92 E0
G1 Z1.4 F9000
G1 X-6.587 Y-8.774
G1 Z1.2
G1 E3.2 F2400
;TYPE:Internal infill
;WIDTH:0.45
G1 F4800
G1 X-8.6 Y-6.76 E3.33696
G1 X-8.6 Y-1.307 E3.59923
G1 X-1.307 Y-8.6 E4.09529
G1 X4.147 Y-8.6 E4.35761
G1 X-8.6 Y4.147 E5.22465
G1 X-8.6 Y9.6 E5.48692
G1 X9.6 Y-8.6 E6.72486
G1 X9.6 Y-3.147 E6.98713
G1 X-3.147 Y9.6 E7.85417
G1 X2.307 Y9.6 E8.11649
G1 X9.6 Y2.307 E8.61255
G1 X9.6 Y7.76 E8.87482
G1 X7.587 Y9.774 E9.01178
;LAYER_CHANGE
;Z:1.5
;HEIGHT:0.3
;BEFORE_LAYER_CHANGE
;G92 E0.0
;1.5


G1 E6.77178 F4200
;WIPE_START
G1 F7200
G1 X8.812 Y8.549 E5.81178
;WIPE_END
G92 E0
G1 Z1.5 F9000
;AFTER_LAYER_CHANGE
;1.5
G1 Z1.7
G1 X4.689 Y9.889
G1 Z1.5
G1 E3.2 F2400
;TYPE:Perimeter
;WIDTH:0.45
G1 X-8.889 Y9.889 E3.85305
G1 X-8.889 Y-8.889 E4.75621
G1 X9.889 Y-8.889 E5.65937
G1 X9.889 Y.5 E6.11095
G1 X9.889 Y9.889 E6.56253
G1 X4.749 Y9.889 E6.80975
G1 X4.689 Y10.275 F9000
;TYPE:External perimeter
G1 F1200
G1 X-9.275 Y10.275 E7.48137
G1 X-9.275 Y-9.275 E8.42166
G1 X10.275 Y-9.275 E9.36195
G1 X10.275 Y.5 E9.83209
G1 X10.275 Y10.275 E10.30223
M73 P11 R12
G1 X4.749 Y10.275 E10.56801
G1 E8.32801 F4200
;WIPE_START
G1 F7200
G1 X4.689 Y10.275 E8.29476
G1 X3.017 Y10.275 E7.36801
;WIPE_END
G92 E0
G1 Z1.7 F9000
G1 X-8.774 Y7.587
G1 Z1.5
G1 E3.2 F2400
;TYPE:Internal infill
;WIDTH:0.45
G1 F4800
G1 X-6.76 Y9.6 E3.33696
G1 X-1.307 Y9.6 E3.59923
G1 X-8.6 Y2.307 E4.09529
G1 X-8.6 Y-3.147 E4.35761
G1 X4.147 Y9.6 E5.22465
G1 X9.6 Y9.6 E5.48692
G1 X-8.6 Y-8.6 E6.72486
G1 X-3.147 Y-8.6 E6.98713
G1 X9.6 Y4.147 E7.85417
G1 X9.6 Y-1.307 E8.11649
G1 X2.307 Y-8.6 E8.61255
G1 X7.76 Y-8.6 E8.87482
G1 X9.774 Y-6.587 E9.01178
;LAYER_CHANGE
;Z:1.8
;HEIGHT:0.3
;BEFORE_LAYER_CHANGE
;G92 E0.0
;1.8


G1 E6.77178 F4200
;WIPE_START
G1 F7200
G1 X8.549 Y-7.812 E5.81178
;WIPE_END
G92 E0
G1 Z1.8 F9000
;AFTER_LAYER_CHANGE
;1.8
G1 Z2
G1 X3.551 Y-8.889
G1 Z1.8
G1 E3.2 F2400
;TYPE:Perimeter
;WIDTH:0.45
G1 X9.889 Y-8.889 E3.50484
G1 X9.889 Y.5 E3.95642
G1 X9.889 Y9.889 E4.408
G1 X-8.889 Y9.889 E5.31116
G1 X-8.889 Y-8.889 E6.21432
G1 X3.491 Y-8.889 E6.80975
G1 X3.551 Y-9.275 F9000
;TYPE:External perimeter
G1 F1200
G1 X10.275 Y-9.275 E7.13315
G1 X10.275 Y.5 E7.60329
G1 X10.275 Y10.275 E8.07343
G1 X-9.275 Y10.275 E9.01372
G1 X-9.275 Y-9.275 E9.95401
